Numix-GalliumOS/48/actions/gtk-page-setup.svg

<?xml version="1.0" encoding="UTF-8" standalone="no"?>
<svg
   xmlns:dc="http://purl.org/dc/elements/1.1/"
   xmlns:cc="http://creativecommons.org/ns#"
   xmlns:rdf="http://www.w3.org/1999/02/22-rdf-syntax-ns#"
   xmlns:svg="http://www.w3.org/2000/svg"
   xmlns="http://www.w3.org/2000/svg"
   xmlns:sodipodi="http://sodipodi.sourceforge.net/DTD/sodipodi-0.dtd"
   xmlns:inkscape="http://www.inkscape.org/namespaces/inkscape"
   width="48"
   height="48"
   viewBox="0 0 48 48"
   id="svg2"
   version="1.1"
   inkscape:version="0.91 r"
   sodipodi:docname="gtk-page-setup.svg">
  <metadata
     id="metadata16">
    <rdf:RDF>
      <cc:Work
         rdf:about="">
        <dc:format>image/svg+xml</dc:format>
        <dc:type
           rdf:resource="http://purl.org/dc/dcmitype/StillImage" />
      </cc:Work>
    </rdf:RDF>
  </metadata>
  <defs
     id="defs14" />
  <sodipodi:namedview
     pagecolor="#ffffff"
     bordercolor="#666666"
     borderopacity="1"
     objecttolerance="10"
     gridtolerance="10"
     guidetolerance="10"
     inkscape:pageopacity="0"
     inkscape:pageshadow="2"
     inkscape:window-width="1366"
     inkscape:window-height="747"
     id="namedview12"
     showgrid="true"
     inkscape:zoom="4.9166667"
     inkscape:cx="24"
     inkscape:cy="24"
     inkscape:window-x="0"
     inkscape:window-y="21"
     inkscape:window-maximized="1"
     inkscape:current-layer="svg2">
    <inkscape:grid
       type="xygrid"
       id="grid4158" />
  </sodipodi:namedview>
  <path
     style="fill:#fff;fill-rule:evenodd"
     d="M 10 4 L 30 4 C 34 4 34 4 34 8 L 34 36 C 34 40 34 40 30 40 L 10 40 C 6 40 6 40 6 36 L 6 8 C 6 4 6 4 10 4 Z "
     id="path4" />
  <g
     id="g4146"
     transform="matrix(0.75,0,0,0.75,12,-739.27165)"
     style="fill:#268bd2;fill-opacity:1">
    <path
       id="path4148"
       d="M 26.519288,1026.0609 40,1039.4425 l -4.895887,4.9197 -13.510881,-13.4114 c -8.620601,2.4448 -14.1624158,-3.0561 -13.5466578,-12.2245 l 10.0312798,6.0888 2.283863,-2.4215 -6.157573,-9.7796 c 8.004844,-1.8336 15.393931,6.7235 12.315144,13.4469 z"
       style="fill:#268bd2;fill-opacity:1"
       inkscape:connector-curvature="0" />
  </g>
</svg>

<svg xmlns="http://www.w3.org/2000/svg" viewBox="0 0 48 48">
 <path d="m 10 4 l 20 0 c 4 0 4 0 4 4 l 0 28 c 0 4 0 4 -4 4 l -20 0 c -4 0 -4 0 -4 -4 l 0 -28 c 0 -4 0 -4 4 -4 Z" style="fill:#fff;fill-rule:evenodd"/>
 <g transform="matrix(0.75,0,0,0.75,12,-739.27165)" style="fill:#268bd2;fill-opacity:1">
  <path d="m 26.519 1026.06 13.481 13.382 l -4.896 4.92 -13.511 -13.411 c -8.621 2.445 -14.162 -3.056 -13.547 -12.225 l 10.03 6.089 2.284 -2.422 -6.158 -9.78 c 8 -1.834 15.394 6.723 12.315 13.447 z"/>
 </g>
</svg>
